icons/lines/align-right.svg

<svg xmlns="http://www.w3.org/2000/svg" width="24" height="24" viewBox="0 0 24 24" fill="none" stroke="currentColor" stroke-width="2" stroke-linecap="round" stroke-linejoin="round">
  <path d="M18.9 19.25H7.1c-1.5 0-2.1-.64-2.1-2.23v-1.04c0-1.59.6-2.23 2.1-2.23h11.8" />
  <path d="M18.9 5.25h-6.8c-1.5 0-2.1.64-2.1 2.23v1.04c0 1.59.6 2.23 2.1 2.23h6.8" />
  <path d="M19 1.99v20" />
</svg>

<svg xmlns="http://www.w3.org/2000/svg" width="24" height="24" viewBox="0 0 24 24" fill="none" stroke="currentColor" stroke-width="2" stroke-linecap="round" stroke-linejoin="round" >
  <path d="M18.9 19.25H7.1C5.6 19.25 5 18.61 5 17.02V15.98C5 14.39 5.6 13.75 7.1 13.75H18.9"/>
  <path d="M18.9 5.25H12.1C10.6 5.25 10 5.89 10 7.48V8.52C10 10.11 10.6 10.75 12.1 10.75H18.9"/>
  <path d="M19 1.99001V21.99"/>
  </svg>
